elevator-passenger.svg

<svg  viewBox="0 0 24 24" fill="currentColor"><path  d="M19 3H5C3.9 3 3 3.9 3 5V19C3 20.1 3.9 21 5 21H19C20.1 21 21 20.1 21 19V5C21 3.9 20.1 3 19 3M8.5 6C9.19 6 9.75 6.56 9.75 7.25S9.19 8.5 8.5 8.5 7.25 7.94 7.25 7.25 7.81 6 8.5 6M11 14H10V18H7V14H6V11.5C6 10.4 6.9 9.5 8 9.5H9C10.1 9.5 11 10.4 11 11.5V14M15.5 17L13 13H18L15.5 17M13 11L15.5 7L18 11H13Z"/></svg>

<svg fill="currentColor" viewBox="0 0 24 24"><path d="M19 3H5c-1.1 0-2 .9-2 2v14c0 1.1.9 2 2 2h14c1.1 0 2-.9 2-2V5c0-1.1-.9-2-2-2M8.5 6a1.25 1.25 0 1 1 0 2.5 1.25 1.25 0 0 1 0-2.5m2.5 8h-1v4H7v-4H6v-2.5c0-1.1.9-2 2-2h1c1.1 0 2 .9 2 2zm4.5 3L13 13h5zM13 11l2.5-4 2.5 4z"/></svg>
